docs/img/all-services/5.svg

<svg width="80" height="80" viewBox="0 0 80 80" fill="none" xmlns="http://www.w3.org/2000/svg">
<path d="M76.1504 27.262V72.6549C76.1504 74.3443 74.7851 75.7144 73.1004 75.7144H6.90159C5.21692 75.7144 3.85156 74.3443 3.85156 72.6549V27.262" stroke="#0098D0" stroke-width="2" stroke-miterlimit="10" stroke-linecap="round"/>
<path d="M35.5158 29.5524C24.4875 29.4418 13.4745 28.8995 2.56303 27.0472C1.90851 26.936 1.42969 26.3645 1.42969 25.6979C1.42969 19.7539 1.42969 20.8088 1.42969 14.8648C1.42969 13.1754 2.79564 11.8054 4.47971 11.8054H75.5224C77.207 11.8054 78.5725 13.1754 78.5725 14.8648V25.6979C78.5725 26.3639 78.0931 26.936 77.4392 27.0472C66.5265 28.9001 55.5135 29.4234 44.4851 29.5524C42.2426 29.5786 37.7583 29.575 35.5158 29.5524Z" stroke="#0098D0" stroke-width="2" stroke-miterlimit="10" stroke-linecap="round"/>
<path d="M56.8144 11.8061V7.8678C56.8144 5.88944 55.2157 4.28571 53.2427 4.28571H26.7586C24.7868 4.28571 23.1875 5.88944 23.1875 7.8678V11.8061" stroke="#0098D0" stroke-width="2" stroke-miterlimit="10" stroke-linecap="round"/>
<path d="M45.8562 71.4085H54.2915H64.152C66.6069 71.4085 68.2269 68.8492 67.1807 66.6241L58.8269 48.8575C58.364 47.8733 58.1231 46.7982 58.1231 45.71V38.8015H58.1237C58.7788 38.8015 59.3093 38.2693 59.3093 37.6134V36.9528C59.3093 36.2963 58.7782 35.7647 58.1237 35.7647H50.4599C49.8047 35.7647 49.2742 36.2969 49.2742 36.9528V37.6134C49.2742 38.2699 49.8053 38.8015 50.4599 38.8015V45.71C50.4599 46.7982 50.2201 47.8733 49.7566 48.8575L45.8438 57.1782" stroke="#0098D0" stroke-width="2" stroke-miterlimit="10" stroke-linecap="round"/>
<path d="M58.123 38.8015H55.3477" stroke="#0098D0" stroke-width="2" stroke-miterlimit="10" stroke-linecap="round"/>
<path d="M58.1236 42.9474H55.3477" stroke="#0098D0" stroke-width="2" stroke-miterlimit="10" stroke-linecap="round"/>
<path d="M58.1236 47.0938H55.3477" stroke="#0098D0" stroke-width="2" stroke-miterlimit="10" stroke-linecap="round"/>
<path d="M13.9453 39.42H17.3099" stroke="#0098D0" stroke-width="2" stroke-miterlimit="10" stroke-linecap="round"/>
<path d="M12.4961 37.1699V38.016C12.4961 38.7926 13.1245 39.4218 13.8989 39.4218V66.7193C13.8989 69.3089 15.9936 71.408 18.5785 71.408C21.1621 71.408 23.258 69.3089 23.258 66.7193V39.4218C24.033 39.4218 24.6608 38.7921 24.6608 38.016V37.1699C24.6608 36.3939 24.0324 35.7642 23.258 35.7642H13.8995C13.1245 35.7642 12.4961 36.3939 12.4961 37.1699Z" stroke="#0098D0" stroke-width="2" stroke-miterlimit="10" stroke-linecap="round"/>
<path d="M29.6602 48.4698H33.0254" stroke="#0098D0" stroke-width="2" stroke-miterlimit="10" stroke-linecap="round"/>
<path d="M28.2109 46.2197V47.0659C28.2109 47.8425 28.8394 48.4716 29.6137 48.4716V66.7193C29.6137 69.3089 31.7085 71.408 34.2933 71.408C36.8776 71.408 38.9729 69.3089 38.9729 66.7193V48.4716C39.7479 48.4716 40.3757 47.8419 40.3757 47.0659V46.2197C40.3757 45.4437 39.7473 44.814 38.9729 44.814H29.6143C28.8388 44.8146 28.2109 45.4437 28.2109 46.2197Z" stroke="#0098D0" stroke-width="2" stroke-miterlimit="10" stroke-linecap="round"/>
<path d="M75.0136 20.63C51.722 18.4791 28.2832 18.4791 4.99219 20.63" stroke="#0098D0" stroke-width="2"/>
</svg>

<svg width="80" height="80" fill="none" xmlns="http://www.w3.org/2000/svg"><path d="M76.15 27.262v45.393c0 1.69-1.365 3.06-3.05 3.06H6.902a3.055 3.055 0 01-3.05-3.06V27.262" stroke="#0098D0" stroke-width="2" stroke-miterlimit="10" stroke-linecap="round"/><path d="M35.516 29.552c-11.028-.11-22.041-.652-32.953-2.505a1.367 1.367 0 01-1.133-1.35V14.866c0-1.69 1.366-3.06 3.05-3.06h71.042c1.685 0 3.05 1.37 3.05 3.06v10.833c0 .666-.479 1.238-1.133 1.35-10.912 1.852-21.925 2.375-32.954 2.504a549.52 549.52 0 01-8.97 0z" stroke="#0098D0" stroke-width="2" stroke-miterlimit="10" stroke-linecap="round"/><path d="M56.814 11.806V7.868a3.577 3.577 0 00-3.571-3.582H26.759a3.577 3.577 0 00-3.572 3.582v3.938m22.669 59.603h18.296c2.455 0 4.075-2.56 3.029-4.785l-8.354-17.766a7.397 7.397 0 01-.704-3.148v-6.909h0c.656 0 1.186-.532 1.186-1.188v-.66c0-.657-.53-1.188-1.185-1.188H50.46c-.655 0-1.186.532-1.186 1.188v.66c0 .657.531 1.188 1.186 1.188v6.909a7.4 7.4 0 01-.703 3.148l-3.913 8.32m12.279-18.377h-2.775m2.776 4.146h-2.776m2.776 4.147h-2.776M13.945 39.42h3.365m-4.814-2.25v.846c0 .777.628 1.406 1.403 1.406v27.297a4.684 4.684 0 004.68 4.689c2.583 0 4.679-2.1 4.679-4.689V39.422c.775 0 1.403-.63 1.403-1.406v-.846c0-.776-.629-1.406-1.403-1.406H13.9c-.776 0-1.404.63-1.404 1.406zm17.164 11.3h3.365m-4.815-2.25v.846c0 .776.63 1.406 1.404 1.406v18.247a4.684 4.684 0 004.68 4.689c2.584 0 4.679-2.1 4.679-4.689V48.472c.775 0 1.403-.63 1.403-1.406v-.846c0-.776-.629-1.406-1.403-1.406h-9.359c-.775 0-1.403.63-1.403 1.406z" stroke="#0098D0" stroke-width="2" stroke-miterlimit="10" stroke-linecap="round"/><path d="M75.014 20.63a380.725 380.725 0 00-70.022 0" stroke="#0098D0" stroke-width="2"/></svg>
